svg/x.svg

<svg viewBox="0 0 12.28 12.28" xmlns="http://www.w3.org/2000/svg"><path d="m7.55 6.14 4.45-4.43a1 1 0 0 0 0-1.42 1 1 0 0 0 -1.41 0l-4.45 4.43-4.43-4.43a1 1 0 0 0 -1.42 1.42l4.43 4.43-4.43 4.43a1 1 0 1 0 1.42 1.43l4.43-4.45 4.43 4.45a1 1 0 0 0 1.43 0 1 1 0 0 0 0-1.41z"/></svg>

<svg xmlns="http://www.w3.org/2000/svg" viewBox="0 0 12.28 12.28"><defs></defs><title>Asset 14</title><g id="Layer_2" data-name="Layer 2"><g id="Layer_1-2" data-name="Layer 1"><path class="cls-1" d="M7.55,6.14,12,1.71A1,1,0,0,0,12,.29a1,1,0,0,0-1.41,0L6.14,4.72,1.71.29A1,1,0,0,0,.29,1.71L4.72,6.14.29,10.57A1,1,0,1,0,1.71,12L6.14,7.55,10.57,12A1,1,0,0,0,12,12a1,1,0,0,0,0-1.41Z"/></g></g></svg>
